X:0769
T:"Daniel O'Rourke"     (jig)     0769
C:after Sg't. J. O'Neill.
N:Deleted 3 eighth notes and replaced with quarter note in 1st repeat.
B:O'Neill's Music Of Ireland (The 1850) Lyon & Healy, Chicago, 1903 edition
Z:FROM O'NEILL'S TO NOTEWORTHY, FROM NOTEWORTHY TO ABC, MIDI AND .TXT BY VINCE
BRENNAN June 2003 (HTTP://WWW.SOSYOURMOM.COM)
I:abc2nwc
M:6/8
L:1/8
K:G
b/2a/2|gdB BdB|gdB gba|gdB BdB|ecA A2f|
gdB BdB|gdB gab|afd ge^c|ded d2:|
|:z|d2b afd|afd fga|d2b afd|ecA cde|
d2b afd|afd fga|[1bge afd| ecA c2:|[2Bge cAc|ded d2
|:(B/2c/2)|d2d' d'ag|fdd def|gag bge|
cAA A2(B/2c/2)|d2d' d'ag|fdd d2d/2c/2|Bge cAc|ded d2:|
